X: 263
T: Miss Muir Mackenzie's Favorite
C:
R: jig
Q: "Slowish"
B: William Shepherd "2nd Collection" 1800 p.26 #3
F: http://imslp.org/wiki/File:PMLP73094-Shepherd_Collections_HMT.pdf
C: William Shepherd (17??-1812)
Z: 2012 John Chambers <jc:trillian.mit.edu>
M: 6/8
L: 1/8
K: D
(3A/B/c/ |\
d<AG TF2A | TG2B A2d | TB>df g>Be | (Td3 c2) ((3A/B/c/) |\
d<AG TF2A | TG2B A2d | B<gf e>dc | d3 Td2 :|
A |\
Td2e f2g | a<fd Td2A | B<gf e>fd | (Td3 c2)A |\
Td2e f2g | a<fd e<cA | bgf edc | d3- d2 ||
A |\
Td2e f2g | a<fd Td2A | B<gf e>fd | (Td3 c2) (3A/B/c/ |\
d<AG TF2A | TG2B E2g | f>ed A<dc | d3- Td2 |]
